X:119
T:Polonesse in B Dur
S:Ur Anders Larssons notbok 
O:Östra Ryd, Östergötland
C: Jonsson
R:Slängpolska
B: Anders Larssons notbok
B:FMK - katalog M189 bild 25
M:3/4
L:1/16
K:Gm
F2dB F2ed c2B2 | B2ba gfga a2b2 | bgeg gfdf fdBG | F2Ac ecAc c2B2 ::
F2Ac ecAc ecAc |B2B2 dBdf bfdB | F2Ac ecAc ecAc |B2B2 dBdf bfdB |
B2ba gfga a2b2 | B2ba gfga a2b2  | bgeg gfdf fdBG | F2Ac ecAc B4 :|

